build/documents/DocRegenerateSolid.svg

<svg xmlns="http://www.w3.org/2000/svg" fill="none" viewBox="0 0 24 24" focusable="false"><path d="M0 0H24V24H0z"/><path fill="#74767B" fill-rule="evenodd" d="M20.0001 6C20.0001 4.34315 18.6569 3 17.0001 3L7.00684 3C5.34998 3 4.00684 4.34315 4.00684 6L4.00684 18C4.00684 19.6569 5.34998 21 7.00684 21L17.0001 21C18.6569 21 20.0001 19.6569 20.0001 18L20.0001 6ZM9.81623 12.2975L10.5462 12.8775C10.6991 12.992 10.8887 13.0287 11.056 12.9982C11.2134 12.9696 11.352 12.8936 11.437 12.746C11.6481 12.4535 11.5944 12.0465 11.3019 11.8355L9.35318 10.3045C9.03386 10.0576 8.57144 10.1417 8.34965 10.487L6.89956 12.6666C6.70012 12.9672 6.79316 13.367 7.0937 13.5664C7.39424 13.7659 7.79404 13.6728 7.99348 13.3723L8.53515 12.5334C8.79341 14.4931 10.4704 16.0057 12.5006 16.0057C14.7098 16.0057 16.5006 14.2148 16.5006 12.0057C16.5006 10.2545 15.3753 8.76616 13.8084 8.22435C13.5958 8.15083 13.375 8.09474 13.1479 8.05778C12.7935 8.00014 12.5006 8.28867 12.5006 8.64766C12.5006 9.00664 12.7958 9.29762 13.1445 9.38293C13.2572 9.4105 13.3671 9.44516 13.4738 9.48639C14.4841 9.8769 15.2006 10.8576 15.2006 12.0057C15.2006 13.4969 13.9918 14.7057 12.5006 14.7057C11.1081 14.7057 9.96173 13.6514 9.81623 12.2975Z"/></svg>

<svg xmlns="http://www.w3.org/2000/svg" fill="none" viewBox="0 0 24 24" focusable="false"><path fill="#74767B" fill-rule="evenodd" d="M20 6c0-1.66-1.35-3-3-3H7C5.35 3 4 4.34 4 6v12c0 1.65 1.35 3 3 3h10c1.65 0 3-1.35 3-3zM9.81 12.29l.73.58c.15.12.34.15.51.12.16-.03.3-.1.38-.25.21-.29.16-.7-.13-.91L9.35 10.3c-.32-.25-.78-.16-1.01.18l-1.45 2.18c-.19.3-.1.7.2.9s.7.11.9-.19l.54-.84A4.005 4.005 0 0 0 12.5 16c2.2 0 4-1.79 4-4 0-1.75-1.13-3.24-2.7-3.78-.21-.07-.43-.13-.66-.17-.35-.05-.64.23-.64.59s.29.65.64.74c.11.03.22.06.33.1 1.01.39 1.73 1.37 1.73 2.52 0 1.49-1.21 2.7-2.7 2.7a2.7 2.7 0 0 1-2.69-2.41"/></svg>
